X: 6
T: My Love Is In America
Z: Fernando Durbán Galnares
S: https://thesession.org/tunes/77#setting43522
R: reel
M: 4/4
L: 1/8
K: Dmix
|:"D"FEFG ABcB|Add^c AddA|FEFG ABcA|"C"GBAG FDDE|
"D"FEFG ABcB|Add^c defg|afge fdec#|1 "C"ABAG "D"FDDE:|2 "C"ABAG "D"FDDe||
|:"D"fdeg fde^c|Add^c Adde|fdeg fdAF|"C"GBAG FDDe|
"D"fdeg fde^c|Add^c defg|afge fdec#|1 "C"ABAG "D"FDDe:|2 "C"ABAG "D"FDDE||

